src/4-icons/hold.svg

<svg width="260" height="260" viewBox="0 0 260 260" fill="none" xmlns="http://www.w3.org/2000/svg">
<path d="M63.9381 110.078C63.0797 117.945 63.4541 125.897 65.0477 133.649C67.2125 143.447 71.1783 152.758 76.7432 161.108C81.1515 167.785 88.3488 172.714 91.9174 176.102L89.6882 221.635" stroke="black" stroke-width="8" stroke-linecap="round" stroke-linejoin="round"/>
<path d="M16.2163 74.4214H90.3878" stroke="black" stroke-width="8" stroke-linecap="round" stroke-linejoin="round"/>
<path d="M16.2163 110.078H89.6081" stroke="black" stroke-width="8" stroke-linecap="round" stroke-linejoin="round"/>
<path d="M191.569 74.4214H249.487" stroke="black" stroke-width="8" stroke-linecap="round" stroke-linejoin="round"/>
<path d="M192.718 110.078H249.486" stroke="black" stroke-width="8" stroke-linecap="round" stroke-linejoin="round"/>
<path d="M167.338 171.064L166.619 170.414C156.073 160.818 135.691 142.225 117.728 125.432C83.1708 93.1142 83.2108 91.5448 83.2508 89.8954C83.5706 76.9004 84.4303 63.9054 85.7898 51.1803C86.2593 46.7372 88.358 42.6254 91.6808 39.6386C95.0036 36.6517 99.315 35.0016 103.783 35.0065C106.751 34.9984 109.675 35.7302 112.29 37.1357C114.069 34.536 116.456 32.4092 119.243 30.9397C122.03 29.4702 125.133 28.7021 128.283 28.7021C131.434 28.7021 134.537 29.4702 137.324 30.9397C140.111 32.4092 142.498 34.536 144.277 37.1357C146.715 35.8405 149.416 35.1192 152.175 35.0268C154.933 34.9344 157.677 35.4733 160.195 36.6025C162.714 37.7316 164.941 39.4212 166.708 41.5422C168.474 43.6633 169.733 46.1598 170.387 48.8412C172.823 47.7779 175.461 47.2572 178.118 47.3154C180.776 47.3735 183.388 48.009 185.775 49.1778C188.162 50.3466 190.267 52.0207 191.942 54.084C193.617 56.1473 194.824 58.5503 195.478 61.1265L195.558 61.4164C197.975 70.9209 199.207 80.688 199.226 90.4952C201.685 129.99 201.015 151.942 190.529 169.835L189.81 171.074L167.338 171.064Z" fill="white"/>
<path d="M128.353 31.1778C131.508 31.1798 134.6 32.0646 137.278 33.7323C139.956 35.3999 142.114 37.7838 143.508 40.6142C145.721 38.98 148.326 37.9588 151.061 37.6539C153.795 37.3489 156.562 37.771 159.081 38.8773C161.6 39.9837 163.782 41.7353 165.408 43.9551C167.033 46.175 168.044 48.7844 168.338 51.52L168.468 52.7795C170.566 51.2738 173 50.3038 175.559 49.9538C178.117 49.6038 180.722 49.8845 183.148 50.7715C185.573 51.6584 187.745 53.1246 189.474 55.0426C191.203 56.9606 192.437 59.2721 193.069 61.776L193.159 62.1059C195.527 71.4208 196.729 80.9937 196.737 90.6049C199.236 130.59 198.347 151.581 188.39 168.575H168.278C148.066 150.192 85.6699 93.2039 85.7498 89.9652C86.0697 77.1101 86.9094 64.2051 88.2789 51.46C88.5711 48.7193 89.5845 46.105 91.2159 43.8834C92.8473 41.6618 95.0384 39.9124 97.566 38.8131C100.094 37.7139 102.867 37.3043 105.605 37.6259C108.342 37.9476 110.945 38.989 113.149 40.6441C114.541 37.7991 116.704 35.4027 119.393 33.7287C122.081 32.0548 125.186 31.1708 128.353 31.1778ZM128.353 26.1797C125.145 26.1578 121.972 26.8464 119.062 28.1962C116.151 29.546 113.576 31.5235 111.52 33.9867C108.562 32.7937 105.368 32.303 102.188 32.5532C99.0083 32.8035 95.93 33.7879 93.1952 35.429C90.4603 37.0701 88.1434 39.3232 86.4265 42.0112C84.7097 44.6992 83.6397 47.7488 83.3008 50.9202C81.9313 63.6753 81.0716 76.7703 80.7517 89.8352C80.6918 92.2743 81.2316 93.6738 92.2473 104.58C97.8652 110.137 105.852 117.754 115.988 127.241C133.981 144.064 154.353 162.667 164.909 172.224L166.339 173.523H191.269L192.719 171.054C203.515 152.611 204.244 130.33 201.715 90.365C201.691 80.3925 200.435 70.4611 197.977 60.7964V60.7164L197.897 60.4165C197.209 57.7197 195.987 55.1885 194.302 52.9728C192.618 50.7572 190.506 48.9022 188.092 47.5179C185.677 46.1335 183.009 45.248 180.246 44.9138C177.483 44.5796 174.682 44.8035 172.007 45.5723C171.01 43.0279 169.518 40.7066 167.618 38.7429C165.717 36.7793 163.446 35.2123 160.936 34.1328C158.425 33.0533 155.725 32.4828 152.993 32.4543C150.26 32.4258 147.549 32.9399 145.017 33.9667C142.978 31.5293 140.429 29.5688 137.55 28.2233C134.671 26.8779 131.531 26.1803 128.353 26.1797Z" fill="white"/>
<path d="M141.198 76.6506V48.0816C141.199 44.6694 139.847 41.396 137.44 38.9775C135.033 36.5591 131.766 35.1924 128.353 35.1766C126.651 35.1647 124.963 35.4898 123.387 36.133C121.811 36.7762 120.378 37.7249 119.17 38.9244C117.962 40.124 117.003 41.5506 116.349 43.1222C115.695 44.6938 115.358 46.3793 115.358 48.0816V76.6506" fill="white"/>
<path d="M141.198 76.6506V48.0816C141.199 44.6694 139.847 41.396 137.44 38.9775C135.033 36.5591 131.766 35.1924 128.353 35.1766V35.1766C126.651 35.1647 124.963 35.4898 123.387 36.133C121.811 36.7762 120.378 37.7249 119.17 38.9244C117.962 40.124 117.003 41.5506 116.349 43.1222C115.695 44.6938 115.358 46.3793 115.358 48.0816V76.6506" stroke="black" stroke-width="8" stroke-linecap="round" stroke-linejoin="round"/>
<path d="M115.358 76.6504V53.1094C115.358 50.0315 114.135 47.0795 111.959 44.9031C109.782 42.7266 106.83 41.5039 103.752 41.5039C100.894 41.5146 98.1399 42.579 96.0171 44.4934C93.8943 46.4078 92.5519 49.0377 92.2469 51.8799C90.4831 68.3847 89.6022 84.972 89.6079 101.571V110.078" fill="white"/>
<path d="M115.358 76.6504V53.1094C115.358 50.0315 114.135 47.0795 111.959 44.9031C109.782 42.7266 106.83 41.5039 103.752 41.5039C100.894 41.5146 98.1399 42.579 96.0171 44.4934C93.8943 46.4078 92.5519 49.0377 92.2469 51.8799V51.8799C90.4831 68.3847 89.6022 84.972 89.6079 101.571V110.078" stroke="black" stroke-width="8" stroke-linecap="round" stroke-linejoin="round"/>
<path d="M166.958 76.6504L164.339 51.9799C164.04 49.1175 162.692 46.4672 160.555 44.5401C158.417 42.613 155.642 41.5457 152.764 41.5439C149.675 41.5439 146.713 42.7709 144.529 44.9548C142.345 47.1388 141.118 50.1009 141.118 53.1895V76.6504" fill="white"/>
<path d="M166.958 76.6504L164.339 51.9799C164.04 49.1175 162.692 46.4672 160.555 44.5401C158.417 42.613 155.642 41.5457 152.764 41.5439V41.5439C149.675 41.5439 146.713 42.7709 144.529 44.9548C142.345 47.1388 141.118 50.1009 141.118 53.1895V76.6504" stroke="black" stroke-width="8" stroke-linecap="round" stroke-linejoin="round"/>
<path d="M166.958 76.6505L165.958 66.8843C165.786 65.2332 165.963 63.5643 166.477 61.9857C166.99 60.4071 167.83 58.954 168.941 57.7205C170.052 56.487 171.41 55.5006 172.926 54.8251C174.442 54.1496 176.084 53.8002 177.744 53.7993C180.378 53.7981 182.938 54.6752 185.018 56.2919C187.098 57.9086 188.58 60.1726 189.23 62.7259L189.309 63.0458C191.616 72.0812 192.781 81.37 192.778 90.6951C195.727 137.677 194.198 157.529 178.074 176.062L178.204 221.595" fill="white"/>
<path d="M166.958 76.6505L165.958 66.8843C165.786 65.2332 165.963 63.5643 166.477 61.9857C166.99 60.4071 167.83 58.954 168.941 57.7205C170.052 56.487 171.41 55.5006 172.926 54.8251C174.442 54.1496 176.084 53.8002 177.744 53.7993C180.378 53.7981 182.938 54.6752 185.018 56.2919C187.098 57.9086 188.58 60.1726 189.23 62.7259L189.309 63.0458C191.616 72.0812 192.781 81.37 192.778 90.6951V90.6951C195.727 137.677 194.198 157.529 178.074 176.062L178.204 221.595" stroke="black" stroke-width="8" stroke-linecap="round" stroke-linejoin="round"/>
</svg>

<svg width="260" height="260" fill="none" xmlns="http://www.w3.org/2000/svg"><path d="M63.938 110.078a76.074 76.074 0 0 0 1.11 23.571 81.04 81.04 0 0 0 11.695 27.459c4.409 6.677 11.606 11.606 15.174 14.994l-2.229 45.533M16.216 74.421h74.172m-74.172 35.657h73.392m101.961-35.657h57.918m-56.769 35.657h56.768" stroke="#000" stroke-width="8" stroke-linecap="round" stroke-linejoin="round"/><path d="m167.338 171.064-.719-.65c-10.546-9.596-30.928-28.189-48.891-44.982-34.557-32.318-34.517-33.887-34.477-35.537A475.74 475.74 0 0 1 85.79 51.18a18.073 18.073 0 0 1 17.993-16.173 17.867 17.867 0 0 1 8.507 2.129 19.375 19.375 0 0 1 15.993-8.434 19.384 19.384 0 0 1 15.994 8.434 18.127 18.127 0 0 1 22.431 4.406 18.119 18.119 0 0 1 3.679 7.3 18.322 18.322 0 0 1 25.091 12.285l.08.29a118.922 118.922 0 0 1 3.668 29.078c2.459 39.495 1.789 61.447-8.697 79.34l-.719 1.239-22.472-.01Z" fill="#fff"/><path d="M128.353 31.178a16.905 16.905 0 0 1 15.155 9.436 15.629 15.629 0 0 1 15.573-1.737 15.638 15.638 0 0 1 9.257 12.643l.13 1.26a15.843 15.843 0 0 1 24.601 8.996l.09.33a116.063 116.063 0 0 1 3.578 28.499c2.499 39.985 1.61 60.976-8.347 77.97h-20.112c-20.212-18.383-82.608-75.371-82.528-78.61a470.87 470.87 0 0 1 2.529-38.505 15.594 15.594 0 0 1 24.87-10.816 16.887 16.887 0 0 1 15.204-9.466Zm0-4.998a21.728 21.728 0 0 0-16.833 7.807A20.623 20.623 0 0 0 83.3 50.92a475.046 475.046 0 0 0-2.548 38.915c-.06 2.44.48 3.839 11.495 14.745 5.618 5.557 13.605 13.174 23.741 22.661 17.993 16.823 38.365 35.426 48.921 44.983l1.43 1.299h24.93l1.45-2.469c10.796-18.443 11.525-40.724 8.996-80.689a121.147 121.147 0 0 0-3.738-29.569v-.08l-.08-.3a20.783 20.783 0 0 0-9.805-12.898 20.798 20.798 0 0 0-16.085-1.946 20.663 20.663 0 0 0-11.071-11.44 20.657 20.657 0 0 0-15.919-.165 21.73 21.73 0 0 0-16.664-7.787Z" fill="#fff"/><path d="M141.198 76.65V48.083a12.901 12.901 0 0 0-12.845-12.905 12.905 12.905 0 0 0-12.995 12.905V76.65" fill="#fff"/><path d="M141.198 76.65V48.083a12.901 12.901 0 0 0-12.845-12.905v0a12.905 12.905 0 0 0-12.995 12.905V76.65" stroke="#000" stroke-width="8" stroke-linecap="round" stroke-linejoin="round"/><path d="M115.358 76.65V53.11a11.607 11.607 0 0 0-11.606-11.606A11.615 11.615 0 0 0 92.247 51.88a466.126 466.126 0 0 0-2.64 49.691v8.507" fill="#fff"/><path d="M115.358 76.65V53.11a11.607 11.607 0 0 0-11.606-11.606A11.615 11.615 0 0 0 92.247 51.88v0a466.126 466.126 0 0 0-2.64 49.691v8.507" stroke="#000" stroke-width="8" stroke-linecap="round" stroke-linejoin="round"/><path d="m166.958 76.65-2.619-24.67a11.648 11.648 0 0 0-11.575-10.436 11.646 11.646 0 0 0-11.646 11.646v23.46" fill="#fff"/><path d="m166.958 76.65-2.619-24.67a11.648 11.648 0 0 0-11.575-10.436v0a11.646 11.646 0 0 0-11.646 11.646v23.46" stroke="#000" stroke-width="8" stroke-linecap="round" stroke-linejoin="round"/><path d="m166.958 76.65-1-9.766a11.855 11.855 0 0 1 6.968-12.059 11.845 11.845 0 0 1 16.304 7.9l.079.32a111.617 111.617 0 0 1 3.469 27.65c2.949 46.982 1.42 66.834-14.704 85.367l.13 45.533" fill="#fff"/><path d="m166.958 76.65-1-9.766a11.855 11.855 0 0 1 6.968-12.059 11.845 11.845 0 0 1 16.304 7.9l.079.32a111.617 111.617 0 0 1 3.469 27.65v0c2.949 46.982 1.42 66.834-14.704 85.367l.13 45.533" stroke="#000" stroke-width="8" stroke-linecap="round" stroke-linejoin="round"/></svg>
